<?xml version="1.0" encoding="UTF-8"?>
<map version="1.10" tiledversion="1.11.0" orientation="orthogonal" renderorder="right-down" width="6" height="4" tilewidth="16" tileheight="16" infinite="0" nextlayerid="5" nextobjectid="1">
 <properties>
  <property name="has_warp_zone" type="bool" value="true"/>
 </properties>
 <tileset firstgid="1" source="../LayoutTiles.tsx"/>
 <layer id="1" name="Maze Shape" width="6" height="4">
  <data encoding="csv">
4,35,19,19,36,3,
52,34,35,36,34,3,
17,49,49,18,4,34,
33,19,20,51,52,3
</data>
 </layer>
 <layer id="2" name="Room Properties" width="6" height="4">
  <data encoding="csv">
22,7,7,7,7,22,
22,7,6,6,7,22,
6,6,6,6,6,22,
22,22,22,6,6,22
</data>
 </layer>
 <layer id="4" name="Minimap" width="6" height="4" opacity="0.78">
  <data encoding="csv">
0,13,13,13,13,0,
0,13,14,14,13,0,
14,14,14,14,14,0,
0,0,0,14,14,0
</data>
 </layer>
 <layer id="3" name="Restrictions" width="6" height="4">
  <data encoding="csv">
0,16,16,16,16,0,
0,16,0,0,16,0,
0,0,0,0,0,0,
0,0,0,0,0,0
</data>
 </layer>
</map>
