<?xml version="1.0" encoding="UTF-8"?>
<map version="1.10" tiledversion="1.11.0" orientation="orthogonal" renderorder="right-down" width="6" height="4" tilewidth="16" tileheight="16" infinite="0" nextlayerid="5" nextobjectid="1">
 <properties>
  <property name="has_warp_zone" type="bool" value="true"/>
 </properties>
 <tileset firstgid="1" source="../LayoutTiles.tsx"/>
 <layer id="1" name="Maze Shape" width="6" height="4">
  <data encoding="csv">
49,19,19,19,19,49,
35,19,33,19,19,36,
51,36,34,35,33,52,
36,51,49,49,52,35
</data>
 </layer>
 <layer id="2" name="Room Properties" width="6" height="4">
  <data encoding="csv">
22,22,22,22,22,22,
21,37,37,37,37,21,
21,21,37,21,21,21,
22,21,21,21,21,22
</data>
 </layer>
 <layer id="4" name="Minimap" width="6" height="4">
  <data encoding="csv">
0,0,0,0,0,0,
14,13,13,13,13,14,
14,14,13,14,14,14,
0,14,14,14,14,0
</data>
 </layer>
 <layer id="3" name="Restrictions" width="6" height="4">
  <data encoding="csv">
0,0,0,0,0,0,
0,16,16,16,16,0,
0,0,16,0,0,0,
0,0,0,0,0,0
</data>
 </layer>
</map>
