<?xml version="1.0" encoding="UTF-8"?>
<map version="1.10" tiledversion="1.11.0" orientation="orthogonal" renderorder="right-down" width="6" height="4" tilewidth="16" tileheight="16" infinite="0" nextlayerid="4" nextobjectid="1">
 <properties>
  <property name="has_warp_zone" type="bool" value="true"/>
 </properties>
 <tileset firstgid="1" source="../LayoutTiles.tsx"/>
 <layer id="1" name="Maze Shape" width="6" height="4">
  <data encoding="csv">
33,36,35,33,36,3,
49,52,34,3,4,3,
35,19,18,49,52,34,
51,19,52,17,19,4
</data>
 </layer>
 <layer id="2" name="Room Properties" width="6" height="4">
  <data encoding="csv">
22,22,37,21,21,22,
22,22,37,21,21,22,
21,21,37,21,21,22,
21,37,37,22,22,22
</data>
 </layer>
 <layer id="3" name="Restrictions" width="6" height="4">
  <data encoding="csv">
0,0,16,0,0,0,
0,0,16,0,0,0,
0,0,16,0,0,0,
0,16,16,0,0,0
</data>
 </layer>
</map>
