<?xml version="1.0" encoding="UTF-8"?>
<map version="1.10" tiledversion="1.11.0" orientation="orthogonal" renderorder="right-down" width="6" height="4" tilewidth="16" tileheight="16" infinite="0" nextlayerid="5" nextobjectid="1">
 <properties>
  <property name="has_warp_zone" type="bool" value="true"/>
 </properties>
 <tileset firstgid="1" source="../LayoutTiles.tsx"/>
 <layer id="1" name="Maze Shape" width="6" height="4">
  <data encoding="csv">
17,33,19,36,35,52,
2,34,1,34,50,2,
34,51,19,18,33,52,
49,19,20,51,52,35
</data>
 </layer>
 <layer id="2" name="Room Properties" width="6" height="4">
  <data encoding="csv">
37,37,37,37,22,22,
22,37,5,37,22,21,
22,37,37,21,21,21,
22,22,22,21,21,22
</data>
 </layer>
 <layer id="4" name="Minimap" width="6" height="4">
  <data encoding="csv">
13,13,13,13,0,0,
0,13,0,13,0,14,
0,13,13,14,14,14,
0,0,0,14,14,0
</data>
 </layer>
 <layer id="3" name="Restrictions" width="6" height="4">
  <data encoding="csv">
16,16,16,16,0,0,
0,16,0,16,0,0,
0,16,16,0,0,0,
0,0,0,0,0,0
</data>
 </layer>
</map>
