<?xml version="1.0" encoding="UTF-8"?>
<map version="1.10" tiledversion="1.11.0" orientation="orthogonal" renderorder="right-down" width="6" height="4" tilewidth="16" tileheight="16" infinite="0" nextlayerid="5" nextobjectid="1">
 <properties>
  <property name="max_exit_rooms" type="int" value="0"/>
  <property name="min_challenge_rooms" type="int" value="0"/>
  <property name="min_exit_rooms" type="int" value="0"/>
  <property name="min_shop_rooms" type="int" value="0"/>
 </properties>
 <tileset firstgid="1" source="../LayoutTiles.tsx"/>
 <layer id="1" name="Maze Shape" width="6" height="4">
  <data encoding="csv">
1,1,1,1,1,1,
1,1,2,1,1,1,
1,1,34,1,1,1,
1,1,50,1,1,1
</data>
 </layer>
 <layer id="2" name="Room Properties" width="6" height="4">
  <data encoding="csv">
5,5,5,5,5,5,
5,5,123,5,5,5,
5,5,110,5,5,5,
5,5,6,5,5,5
</data>
 </layer>
 <layer id="3" name="Restrictions" width="6" height="4">
  <data encoding="csv">
0,0,0,0,0,0,
0,0,16,0,0,0,
0,0,16,0,0,0,
0,0,0,0,0,0
</data>
 </layer>
 <layer id="4" name="Minimap" width="6" height="4">
  <data encoding="csv">
0,0,0,0,0,0,
0,0,14,0,0,0,
0,0,14,0,0,0,
0,0,14,0,0,0
</data>
 </layer>
</map>
