<?xml version="1.0" encoding="UTF-8"?>
<map version="1.10" tiledversion="1.11.0" orientation="orthogonal" renderorder="right-down" width="7" height="7" tilewidth="16" tileheight="16" infinite="0" nextlayerid="41" nextobjectid="1">
 <properties>
  <property name="avoid_map_edge" type="bool" value="true"/>
 </properties>
 <tileset firstgid="1" source="../MapTiles.tsx"/>
 <tileset firstgid="257" source="../DiscoFloorTiles.tsx"/>
 <tileset firstgid="289" source="../Attributes.tsx"/>
 <tileset firstgid="293" source="../TechnicalTiles.tsx"/>
 <layer id="1" name="Base" width="7" height="7">
  <data encoding="csv">
0,0,0,0,0,0,0,
0,261,275,275,275,262,0,
0,268,199,200,201,266,0,
0,268,231,232,233,266,0,
0,268,247,256,249,266,0,
0,269,259,280,259,270,0,
0,0,0,0,0,0,0
</data>
 </layer>
 <layer id="2" name="Attributes" width="7" height="7" opacity="0.2">
  <data encoding="csv">
0,0,0,0,0,0,0,
0,0,0,0,0,0,0,
0,0,291,291,291,0,0,
0,0,291,291,291,0,0,
0,0,292,292,292,0,0,
0,0,0,0,0,0,0,
0,0,0,0,0,0,0
</data>
 </layer>
 <group id="39" name="Requirements">
  <layer id="40" name="Base" width="7" height="7" opacity="0.49" tintcolor="#00ffff">
   <data encoding="csv">
265,265,265,265,265,265,265,
265,265,265,265,265,265,265,
265,265,265,265,265,265,265,
265,265,265,265,265,265,265,
265,265,265,265,265,265,265,
265,265,265,265,265,265,265,
265,265,265,265,265,265,265
</data>
  </layer>
 </group>
</map>
