<?xml version="1.0" encoding="UTF-8"?>
<map version="1.10" tiledversion="1.11.2" orientation="orthogonal" renderorder="right-down" width="16" height="11" tilewidth="16" tileheight="16" infinite="0" nextlayerid="67" nextobjectid="1">
 <properties>
  <property name="base_logic" value="ROOM_BASE_LOGIC_NONE"/>
  <property name="category" value="exterior"/>
  <property name="dark" type="bool" value="false"/>
  <property name="exit_east" type="bool" value="true"/>
  <property name="exit_north" type="bool" value="true"/>
  <property name="exit_south" type="bool" value="true"/>
  <property name="exit_west" type="bool" value="true"/>
  <property name="forbid_player_spawning" type="bool" value="false"/>
  <property name="room_obj_palette" value="sprite_palette_overworld_table"/>
  <property name="room_palette" value="hub_world_palette_table"/>
 </properties>
 <tileset firstgid="1" source="../../MapTiles.tsx"/>
 <tileset firstgid="257" source="../../DiscoFloorTiles.tsx"/>
 <tileset firstgid="289" source="../../Attributes.tsx"/>
 <tileset firstgid="293" source="../../TechnicalTiles.tsx"/>
 <tileset firstgid="421" source="../../SignTiles.tsx"/>
 <tileset firstgid="549" source="../../OverlayExitTiles.tsx"/>
 <layer id="1" name="Base" width="16" height="11">
  <data encoding="csv">
216,216,216,216,216,216,216,216,216,216,216,216,216,216,216,216,
216,218,232,232,232,232,232,232,232,232,232,232,232,232,219,216,
218,233,247,248,248,248,248,248,248,248,248,248,248,249,231,219,
217,250,258,259,259,259,259,259,259,259,259,259,259,260,250,215,
217,258,270,257,257,257,257,257,257,257,257,257,257,269,260,215,
217,266,257,257,257,257,257,73,74,257,257,257,257,257,268,215,
217,266,208,257,208,257,257,89,90,257,257,208,257,208,268,215,
217,274,262,257,257,257,257,257,257,257,257,257,257,261,276,215,
234,201,274,275,275,262,257,257,257,257,261,275,275,276,199,235,
216,234,200,200,201,266,257,257,257,257,268,199,200,200,235,216,
216,216,216,216,217,266,257,257,257,257,268,215,216,216,216,216
</data>
 </layer>
 <layer id="66" name="Behavioral Overrides" width="16" height="11" opacity="0.21">
  <data encoding="csv">
0,0,0,0,0,0,0,0,0,0,0,0,0,0,0,0,
0,0,0,0,0,0,0,0,0,0,0,0,0,0,0,0,
0,0,0,0,0,0,0,0,0,0,0,0,0,0,0,0,
0,0,0,0,0,0,0,0,0,0,0,0,0,0,0,0,
0,0,0,0,0,0,0,0,0,0,0,0,0,0,0,0,
0,0,0,0,0,0,0,0,0,0,0,0,0,0,0,0,
0,0,0,0,0,0,0,0,0,0,0,0,0,0,0,0,
0,0,0,0,0,0,0,0,0,0,0,0,0,0,0,0,
0,0,0,0,0,0,0,0,0,0,0,0,0,0,0,0,
0,0,0,0,0,0,0,0,0,0,0,0,0,0,0,0,
0,0,0,0,0,0,0,0,0,0,0,0,0,0,0,0
</data>
 </layer>
 <layer id="2" name="Attributes" width="16" height="11" opacity="0.2">
  <data encoding="csv">
291,291,291,291,291,291,291,291,291,291,291,291,291,291,291,291,
291,291,291,291,291,291,291,291,291,291,291,291,291,291,291,291,
291,291,292,292,292,292,292,292,292,292,292,292,292,292,291,291,
291,292,289,289,289,289,289,289,289,289,289,289,289,289,292,291,
291,289,289,289,289,289,289,289,289,289,289,289,289,289,289,291,
291,289,289,289,289,289,289,289,289,289,289,289,289,289,289,291,
291,289,289,289,289,289,289,289,289,289,289,289,0,289,289,291,
291,289,289,289,289,289,289,289,289,289,289,289,289,289,289,291,
291,291,289,289,289,289,289,289,289,289,289,289,289,289,291,291,
291,291,291,291,291,289,289,289,289,289,289,291,291,291,291,291,
291,291,291,291,291,289,289,289,289,289,289,291,291,291,291,291
</data>
 </layer>
</map>
