<?xml version="1.0" encoding="UTF-8"?>
<map version="1.10" tiledversion="1.11.0" orientation="orthogonal" renderorder="right-down" width="16" height="11" tilewidth="16" tileheight="16" infinite="0" nextlayerid="66" nextobjectid="1">
 <properties>
  <property name="base_logic" value="ROOM_BASE_LOGIC_NONE"/>
  <property name="category" value="exterior"/>
  <property name="dark" type="bool" value="false"/>
  <property name="exit_east" type="bool" value="true"/>
  <property name="exit_north" type="bool" value="true"/>
  <property name="exit_south" type="bool" value="true"/>
  <property name="exit_west" type="bool" value="true"/>
  <property name="forbid_spawning" type="bool" value="false"/>
  <property name="room_obj_palette" value="sprite_palette_overworld"/>
  <property name="room_palette" value="hub_world_palette"/>
 </properties>
 <tileset firstgid="1" source="../../MapTiles.tsx"/>
 <tileset firstgid="257" source="../../DiscoFloorTiles.tsx"/>
 <tileset firstgid="289" source="../../Attributes.tsx"/>
 <tileset firstgid="293" source="../../TechnicalTiles.tsx"/>
 <tileset firstgid="357" source="../../SignTiles.tsx"/>
 <tileset firstgid="485" source="../../ExitTiles.tsx"/>
 <layer id="1" name="Base" width="16" height="11">
  <data encoding="csv">
212,226,226,226,226,226,226,226,226,226,226,226,226,226,226,213,
211,242,242,242,242,242,242,242,242,242,242,242,242,242,242,209,
211,258,550,259,549,548,547,546,259,372,259,259,259,259,260,209,
211,266,273,257,257,257,257,257,257,257,257,257,257,257,268,209,
211,266,545,257,544,543,542,541,257,371,257,257,257,257,268,225,
211,266,273,257,257,257,257,257,257,257,257,257,257,257,268,241,
211,266,540,257,539,538,537,536,257,370,257,257,257,257,269,259,
211,266,273,257,257,257,257,257,257,257,257,257,257,257,257,257,
211,266,535,257,534,533,532,531,257,369,257,257,257,257,257,257,
211,274,275,275,275,275,275,275,275,275,275,262,257,257,261,275,
228,194,194,194,194,194,194,194,194,194,195,266,257,257,268,193
</data>
 </layer>
 <layer id="2" name="Attributes" width="16" height="11" opacity="0.2">
  <data encoding="csv">
289,289,289,289,289,289,289,289,289,289,289,289,289,289,289,289,
289,289,289,289,289,289,289,289,289,289,289,289,289,289,289,289,
289,289,289,289,291,291,291,290,289,290,289,289,289,289,289,289,
289,289,0,0,0,0,0,0,0,0,0,0,0,0,289,289,
289,289,289,289,291,291,291,290,289,289,289,289,289,289,289,289,
289,289,289,289,289,289,289,289,289,289,289,289,289,289,289,289,
289,289,289,289,291,291,291,290,289,289,0,0,0,0,289,289,
289,289,289,289,289,289,289,289,289,289,289,289,289,289,289,289,
289,289,289,0,291,291,291,290,0,0,0,289,289,289,289,289,
289,289,289,289,289,0,0,0,0,289,289,289,289,289,289,289,
289,289,289,289,289,289,289,289,289,289,289,289,289,289,289,289
</data>
 </layer>
</map>
