<?xml version="1.0" encoding="UTF-8"?>
<map version="1.10" tiledversion="1.11.0" orientation="orthogonal" renderorder="right-down" width="16" height="11" tilewidth="16" tileheight="16" infinite="0" nextlayerid="68" nextobjectid="1">
 <properties>
  <property name="base_logic" value="ROOM_BASE_LOGIC_NONE"/>
  <property name="category" value="exterior"/>
  <property name="dark" type="bool" value="false"/>
  <property name="exit_east" type="bool" value="true"/>
  <property name="exit_north" type="bool" value="true"/>
  <property name="exit_south" type="bool" value="true"/>
  <property name="exit_west" type="bool" value="true"/>
  <property name="forbid_spawning" type="bool" value="false"/>
  <property name="room_obj_palette" value="sprite_palette_overworld"/>
  <property name="room_palette" value="hub_world_palette"/>
 </properties>
 <tileset firstgid="1" source="../../MapTiles.tsx"/>
 <tileset firstgid="257" source="../../DiscoFloorTiles.tsx"/>
 <tileset firstgid="289" source="../../Attributes.tsx"/>
 <tileset firstgid="293" source="../../TechnicalTiles.tsx"/>
 <tileset firstgid="357" source="../../SignTiles.tsx"/>
 <layer id="1" name="Base" width="16" height="11">
  <data encoding="csv">
211,266,257,257,257,257,257,257,257,257,257,257,257,257,268,209,
211,266,257,257,257,257,257,257,257,257,257,257,257,257,268,209,
211,266,257,257,257,257,257,257,257,257,257,257,257,257,268,209,
211,266,257,257,257,257,257,257,257,257,257,257,257,257,268,209,
211,266,257,257,257,257,257,257,257,257,257,257,257,257,268,209,
211,266,257,257,257,257,257,257,257,257,257,257,257,257,268,209,
211,266,257,257,257,257,257,257,257,257,257,257,257,257,268,209,
211,266,257,257,257,257,257,257,257,257,257,257,257,257,268,209,
211,266,257,257,257,257,257,257,257,257,257,257,257,257,268,209,
211,280,275,275,275,275,275,275,275,275,275,275,275,275,276,209,
228,194,194,194,194,194,194,194,194,194,194,194,194,194,194,229
</data>
 </layer>
 <layer id="67" name="Behavior Overrides" width="16" height="11" opacity="0.23">
  <data encoding="csv">
0,0,0,0,0,0,0,0,0,0,0,0,0,0,0,0,
0,0,0,0,0,0,0,0,0,0,0,0,0,0,0,0,
0,0,0,0,0,0,0,0,0,0,0,0,0,0,0,0,
0,0,0,0,0,0,0,0,0,0,0,0,0,0,0,0,
0,0,0,0,0,0,0,0,0,0,0,0,0,0,0,0,
0,0,0,0,0,0,0,0,0,0,0,0,0,0,0,0,
0,0,0,0,0,0,0,0,0,0,0,0,0,0,0,0,
0,0,0,0,0,0,0,0,0,0,0,0,0,0,0,0,
0,0,0,0,0,0,0,0,0,0,0,0,0,0,0,0,
309,0,0,0,0,0,0,0,0,0,0,0,0,0,0,0,
0,0,0,0,0,0,0,0,0,0,0,0,0,0,0,0
</data>
 </layer>
 <layer id="2" name="Attributes" width="16" height="11" opacity="0.2">
  <data encoding="csv">
289,289,289,289,289,289,289,289,289,289,289,289,289,289,289,289,
289,289,289,289,289,289,289,289,289,289,289,289,289,289,289,289,
289,289,289,289,289,289,289,289,289,289,289,289,289,289,289,289,
289,289,0,0,0,0,0,0,0,0,0,0,0,0,289,289,
289,289,289,289,289,289,289,289,289,289,289,289,289,289,289,289,
289,289,289,289,289,289,289,289,289,289,289,289,289,289,289,289,
289,289,289,289,289,289,289,289,289,289,0,0,0,0,289,289,
289,289,289,289,289,289,289,289,289,289,289,289,289,289,289,289,
289,289,289,0,0,289,289,289,0,0,0,289,289,289,289,289,
289,289,289,289,289,0,0,0,0,289,289,289,289,289,289,289,
289,289,289,289,289,289,289,289,289,289,289,289,289,289,289,289
</data>
 </layer>
</map>
